contributed-vectors/skagen_connected.svg

<svg xmlns="http://www.w3.org/2000/svg" xml:space="preserve" style="fill-rule:evenodd;clip-rule:evenodd;stroke-linejoin:round;stroke-miterlimit:2" viewBox="0 0 192 192"><path d="M164.5 21.5c0-5.519-4.481-10-10-10h-133c-5.519 0-10 4.481-10 10v133c0 5.519 4.481 10 10 10h133c5.519 0 10-4.481 10-10v-133Z" style="fill:#fff" transform="translate(8 8)"/><text x="29.5" y="98.361" style="font-family:&quot;TacticSans-Reg&quot;;font-size:36.017px;fill:#9abeff" transform="matrix(.56362 0 0 .56362 22.959 47.667)">S<tspan x="64.941px 98.149px 133.122px 169.283px 201.086px" y="98.361px 98.361px 98.361px 98.361px 98.361px">KAGEN</tspan></text></svg>

<?xml version="1.0" encoding="UTF-8" standalone="no"?>
<!DOCTYPE svg PUBLIC "-//W3C//DTD SVG 1.1//EN" "http://www.w3.org/Graphics/SVG/1.1/DTD/svg11.dtd">
<svg width="100%" height="100%" viewBox="0 0 192 192" version="1.1" xmlns="http://www.w3.org/2000/svg" xmlns:xlink="http://www.w3.org/1999/xlink" xml:space="preserve" xmlns:serif="http://www.serif.com/" style="fill-rule:evenodd;clip-rule:evenodd;stroke-linejoin:round;stroke-miterlimit:2;">
    <g id="Layer1">
        <g transform="matrix(1,0,0,1,8,8)">
            <path d="M164.5,21.5C164.5,15.981 160.019,11.5 154.5,11.5L21.5,11.5C15.981,11.5 11.5,15.981 11.5,21.5L11.5,154.5C11.5,160.019 15.981,164.5 21.5,164.5L154.5,164.5C160.019,164.5 164.5,160.019 164.5,154.5L164.5,21.5Z" style="fill:white;"/>
        </g>
        <g transform="matrix(0.563624,0,0,0.563624,22.9587,47.6666)">
            <text x="29.5px" y="98.361px" style="font-family:'TacticSans-Reg';font-size:36.017px;fill:rgb(154,190,255);">S<tspan x="64.941px 98.149px 133.122px 169.283px 201.086px " y="98.361px 98.361px 98.361px 98.361px 98.361px ">KAGEN</tspan></text>
        </g>
    </g>
</svg>
